X:37
T:Miss Sayer's Allemand
Q:1/4=110
I:abc2nwc
M:2/4
L:1/16
K:F
   c2 | a2a2 a2b2 | a6   b2 | a2g2  f2e2 | fefg f3c | a2a2 a2b2 | a6   b2 | a2g2 f2e2 | f6 :|
|: z2 | A4   F2C2 | B4 G2E2 | c2=Bc d2g2 | f4   e4  | A4   F2C2 | B4 G2B2 | A2G2 F2E2 | F6 :|
